resources/svg/quote.svg

<svg xmlns="http://www.w3.org/2000/svg" viewBox="0 0 15 15" fill="currentColor"><path d="M2.5 1C1.67157 1 1 1.67157 1 2.5V10C1 12.2091 2.79086 14 5 14V13C3.34315 13 2 11.6569 2 10V7H5.5C6.32843 7 7 6.32843 7 5.5V2.5C7 1.67157 6.32843 1 5.5 1H2.5Z" fill="black"/><path d="M9.5 1C8.67157 1 8 1.67157 8 2.5V10C8 12.2091 9.79086 14 12 14V13C10.3431 13 9 11.6569 9 10V7H12.5C13.3284 7 14 6.32843 14 5.5V2.5C14 1.67157 13.3284 1 12.5 1H9.5Z" fill="black"/></svg>

<svg xmlns="http://www.w3.org/2000/svg" viewBox="0 0 15 15" fill="currentColor"><path d="M2.5 1A1.5 1.5 0 001 2.5V10a4 4 0 004 4v-1a3 3 0 01-3-3V7h3.5A1.5 1.5 0 007 5.5v-3A1.5 1.5 0 005.5 1h-3zm7 0A1.5 1.5 0 008 2.5V10a4 4 0 004 4v-1a3 3 0 01-3-3V7h3.5A1.5 1.5 0 0014 5.5v-3A1.5 1.5 0 0012.5 1h-3z" fill="currentColor"/></svg>
